X:128
T:Highlander's Kneebuckle (reel), The
B:CRE2.136 (BÃÂÃÂÃÂÃÂºcla GlÃÂÃÂÃÂÃÂºine an HÃÂÃÂÃÂÃÂ­leantÃÂÃÂÃÂÃÂ³ra)
F:file ID: cre.2/128highl_k
N:Not related to "Hielander's Kneebuckle" (CRE.2 #156)
Q:180
L:1/8
M:4/4
R:reel
K:G
BGdG eGdG|(3BBG dG BAAc|BGdG eGBd|egfa gedc|
BGdG (3eeG dG|BGdG BAAc|BGdG (3eeG Bd|egfa g4||
dgbg agbg|dgbg ag (3efg|dgbg agbg|abag edeg|
dgbg agbg|dgbg agea|(3bag (3agf gfed|egfa gedc||

%%%

